X: 10537
T: Dooncastle, The
R: hornpipe
M: 4/4
K: Gmajor
dG (3GAG AGED|GD (3EGE DB,DE|GABG (3ABA GA|B2dBA2Bc|
dG (3GAG AGED|GD (3EGE DB,DE|GABG (3ABA GE DGBAG2z2:|
Bdd2BdeB|dedB ABGA|Bd (3dBd Bded|BAGBA2GA|
Bdd2BdeB|dedB ABGA|(3ded BG ABGE|DGBAG2z2:|

